X: 1
T: Miss Wilma McKay's Wedding March
C: Jimmy Shand
R: jig
B: Jimmy Shand, Scottish Dance Album Book 2 (1953) Pub. James S.Kerr, Glasgow
Z: John Chambers <jc:trillian.mit.edu>
M: 2/4
L: 1/16
K: A
|: AB \
| "A"c4 c2e2 | d>cB>A c2e2 | f2ea f>ea>A | "E7"c2B2B2 AB \
| "A"c4 c2e2 | d>cB>A c2e2 | f2ea "E7"f>ea>B | "A"c2A2 A2 :|
|: a2 \
| "A"f2ec c2a2 | A>Bc>d e2a2 | f2ea f>ea>A | "E7"c2B2B2 a2 \
| "A"f2ec c2a2 | A>Bc>d e2a2 | f2ea "E7"f>ea>B | "A"c2A2A2 a2 |
| "D"f>ga>f "A"eacB | ABcd e2a2 | "D"f2"A"ea feaA | "E7"c2B2B2 AB \
| "A"c4 c2e2 | d>cB>A c2e2 | f2ea "E7"f>ea>B | "A"c2A2A2 :|

%%sep 1 1 500

